images/logo_cnn.svg

<svg width="55" height="50" fill="none" xmlns="http://www.w3.org/2000/svg"><path d="M5.50296 25.2285c0 4.4158 3.54088 8.0077 7.90594 8.0077h7.3852c.4631 0 .8237-.4414.8237-.8309V17.7312c.0004-.4457.1755-.8731.4866-1.1883.3112-.3152.7332-.4924 1.1733-.4929.288-.0003.5712.0754.8215.2198.2503.1444.459.3524.6057.6035L33.982 33.074c.079.1289.1972.2284.3368.2835.1397.055.2931.0627.4374.0218.1443-.0409.2716-.1281.3627-.2485.0912-.1204.1413-.2676.1428-.4193V17.7312c.0004-.4457.1754-.8731.4866-1.1883.3112-.3152.7331-.4924 1.1732-.4929.2881-.0003.5712.0754.8215.2198.2503.1444.4591.3524.6058.6035l9.2678 16.1996c.079.1289.1972.2283.3367.2834.1396.0551.293.0628.4373.022.1442-.0408.2715-.1279.3627-.2483.0912-.1203.1413-.2674.143-.4191V13.289h-2.9107v11.5605l-5.4447-9.4903c-.7698-1.333-2.2297-2.175-3.7839-2.175-2.4339 0-4.4125 2.0001-4.4125 4.4654V24.85l-5.4448-9.4902c-.7719-1.3325-2.2318-2.1739-3.7844-2.1739-2.4339 0-4.4125 2.0001-4.4125 4.4653v11.8297c.0017.4304-.3181.8056-.7833.8067h-4.4888c-1.3248 0-2.5954-.5331-3.53223-1.4819-.93682-.9489-1.46311-2.2358-1.46311-3.5777 0-1.3419.52629-2.6288 1.46311-3.5777.93683-.9489 2.20743-1.4819 3.53223-1.4819h3.7599v-2.9475h-3.7915c-4.34981 0-7.89614 3.5864-7.89614 8.0076ZM49.8648 13.2901V32.712c-.0004.4458-.1754.8732-.4866 1.1883-.3112.3152-.7331.4925-1.1732.4929-.288.0005-.5711-.0752-.8214-.2195-.2503-.1443-.4591-.3521-.6059-.6031l-9.2689-16.2008c-.079-.1288-.1972-.2283-.3367-.2834-.1396-.055-.293-.0628-.4372-.022-.1443.0409-.2716.128-.3628.2483-.0912.1203-.1413.2674-.143.4191V32.712c-.0004.4458-.1754.8732-.4866 1.1883-.3112.3152-.7331.4925-1.1732.4929-.2886.0005-.5722-.0757-.8227-.2209-.2504-.1452-.4589-.3544-.6046-.6067l-9.2765-16.1958c-.1183-.2041-.3498-.331-.59-.331-.1827.0006-.3578.0744-.487.2052-.1292.1309-.2021.3082-.2027.4933v14.668c0 .9655-.8378 1.8136-1.7933 1.8136h-7.3841c-2.3534-.0023-4.60976-.9503-6.27387-2.6358-1.66411-1.6855-2.60001-3.9709-2.60232-6.3546.00231-2.3836.93821-4.669 2.60232-6.3545 1.66411-1.6855 3.92047-2.6335 6.27387-2.6358h3.7915v-2.9481h-3.7817c-6.50978 0-11.78734 5.3449-11.78734 11.939S6.90297 37.168 13.4182 37.168h7.4555c2.824.0017 4.6402-1.6745 4.6304-4.766v-6.8099l5.4448 9.4903c.7697 1.333 2.2296 2.175 3.7838 2.175 2.434 0 4.4125-2.0001 4.4125-4.4648v-7.2005l5.4448 9.4903c.7703 1.333 2.2302 2.175 3.7838 2.175 2.434 0 4.4125-2.0001 4.4125-4.4648V13.2901h-2.9215Z" fill="#fff"/></svg>

<svg width="55" height="50" viewBox="0 0 55 50" fill="none" xmlns="http://www.w3.org/2000/svg">
<path d="M5.50296 25.2285C5.50296 29.6443 9.04384 33.2362 13.4089 33.2362H20.7941C21.2572 33.2362 21.6178 32.7948 21.6178 32.4053V17.7312C21.6182 17.2855 21.7933 16.8581 22.1044 16.5429C22.4156 16.2277 22.8376 16.0505 23.2777 16.05C23.5657 16.0497 23.8489 16.1254 24.0992 16.2698C24.3495 16.4142 24.5582 16.6222 24.7049 16.8733L33.982 33.074C34.061 33.2029 34.1792 33.3024 34.3188 33.3575C34.4585 33.4125 34.6119 33.4202 34.7562 33.3793C34.9005 33.3384 35.0278 33.2512 35.1189 33.1308C35.2101 33.0104 35.2602 32.8632 35.2617 32.7115V17.7312C35.2621 17.2855 35.4371 16.8581 35.7483 16.5429C36.0595 16.2277 36.4814 16.0505 36.9215 16.05C37.2096 16.0497 37.4927 16.1254 37.743 16.2698C37.9933 16.4142 38.2021 16.6222 38.3488 16.8733L47.6166 33.0729C47.6956 33.2018 47.8138 33.3012 47.9533 33.3563C48.0929 33.4114 48.2463 33.4191 48.3906 33.3783C48.5348 33.3375 48.6621 33.2504 48.7533 33.13C48.8445 33.0097 48.8946 32.8626 48.8963 32.7109V13.289H45.9856V24.8495L40.5409 15.3592C39.7711 14.0262 38.3112 13.1842 36.757 13.1842C34.3231 13.1842 32.3445 15.1843 32.3445 17.6496V24.85L26.8997 15.3598C26.1278 14.0273 24.6679 13.1859 23.1153 13.1859C20.6814 13.1859 18.7028 15.186 18.7028 17.6512V29.4809C18.7045 29.9113 18.3847 30.2865 17.9195 30.2876H13.4307C12.1059 30.2876 10.8353 29.7545 9.89847 28.8057C8.96165 27.8568 8.43536 26.5699 8.43536 25.228C8.43536 23.8861 8.96165 22.5992 9.89847 21.6503C10.8353 20.7014 12.1059 20.1684 13.4307 20.1684H17.1906V17.2209H13.3991C9.04929 17.2209 5.50296 20.8073 5.50296 25.2285ZM49.8648 13.2901V32.712C49.8644 33.1578 49.6894 33.5852 49.3782 33.9003C49.067 34.2155 48.6451 34.3928 48.205 34.3932C47.917 34.3937 47.6339 34.318 47.3836 34.1737C47.1333 34.0294 46.9245 33.8216 46.7777 33.5706L37.5088 17.3698C37.4298 17.241 37.3116 17.1415 37.1721 17.0864C37.0325 17.0314 36.8791 17.0236 36.7349 17.0644C36.5906 17.1053 36.4633 17.1924 36.3721 17.3127C36.2809 17.433 36.2308 17.5801 36.2291 17.7318V32.712C36.2287 33.1578 36.0537 33.5852 35.7425 33.9003C35.4313 34.2155 35.0094 34.3928 34.5693 34.3932C34.2807 34.3937 33.9971 34.3175 33.7466 34.1723C33.4962 34.0271 33.2877 33.8179 33.142 33.5656L23.8655 17.3698C23.7472 17.1657 23.5157 17.0388 23.2755 17.0388C23.0928 17.0394 22.9177 17.1132 22.7885 17.244C22.6593 17.3749 22.5864 17.5522 22.5858 17.7373V32.4053C22.5858 33.3708 21.748 34.2189 20.7925 34.2189H13.4084C11.055 34.2166 8.79864 33.2686 7.13453 31.5831C5.47042 29.8976 4.53452 27.6122 4.53221 25.2285C4.53452 22.8449 5.47042 20.5595 7.13453 18.874C8.79864 17.1885 11.055 16.2405 13.4084 16.2382H17.1999V13.2901H13.4182C6.90842 13.2901 1.63086 18.635 1.63086 25.2291C1.63086 31.8232 6.90297 37.168 13.4182 37.168H20.8737C23.6977 37.1697 25.5139 35.4935 25.5041 32.402V25.5921L30.9489 35.0824C31.7186 36.4154 33.1785 37.2574 34.7327 37.2574C37.1667 37.2574 39.1452 35.2573 39.1452 32.7926V25.5921L44.59 35.0824C45.3603 36.4154 46.8202 37.2574 48.3738 37.2574C50.8078 37.2574 52.7863 35.2573 52.7863 32.7926V13.2901H49.8648Z" fill="white"/>
</svg>
